icons/arrow-box-in-top-right.svg

<svg xmlns="http://www.w3.org/2000/svg" width="24" height="24" viewBox="0 0 24 24">
  <path d="M19,2 L19.1762728,2.00509269 C20.75108,2.09633912 22,3.40231912 22,5 L22,5 L22,19 L21.9949073,19.1762728 C21.9036609,20.75108 20.5976809,22 19,22 L19,22 L9,22 L8.88337887,21.9932723 C8.38604019,21.9355072 8,21.5128358 8,21 C8,20.4477153 8.44771525,20 9,20 L9,20 L19,20 L19.1166211,19.9932723 C19.6139598,19.9355072 20,19.5128358 20,19 L20,19 L20,5 L19.9932723,4.88337887 C19.9355072,4.38604019 19.5128358,4 19,4 L19,4 L5,4 L4.88337887,4.00672773 C4.38604019,4.06449284 4,4.48716416 4,5 L4,5 L4,16 L3.99327227,16.1166211 C3.93550716,16.6139598 3.51283584,17 3,17 C2.44771525,17 2,16.5522847 2,16 L2,16 L2,5 L2.00509269,4.82372721 C2.09633912,3.24891996 3.40231912,2 5,2 L5,2 L19,2 Z M15,8 L15.032,8.001 L15.0590314,8.0017331 L15.0590314,8.0017331 L15.081,8.004 L15.1166211,8.00672773 C15.1291477,8.00818267 15.1416037,8.00986911 15.1539846,8.01178265 C15.1611342,8.01296161 15.1687893,8.01423509 15.1764315,8.01559786 L15.1988177,8.01976438 C15.2231682,8.02467654 15.2471983,8.03047332 15.2708729,8.03711974 C15.2847689,8.04109725 15.2984943,8.04526694 15.3121425,8.04973809 C15.3317977,8.05612249 15.3515792,8.06331574 15.3710585,8.07110396 C15.3887956,8.07819642 15.4060985,8.08567905 15.4232215,8.09367336 C15.4438914,8.10337664 15.4642939,8.11379392 15.484277,8.12487577 C15.4963944,8.13149883 15.5086131,8.13860692 15.5207088,8.14599545 C15.546275,8.1617187 15.5711307,8.17849009 15.5951593,8.19631351 C15.6343256,8.22531295 15.6717127,8.25749917 15.7071068,8.29289322 L15.6148064,8.21126487 L15.6148064,8.21126487 L15.625449,8.21968877 C15.6854251,8.26782388 15.7397335,8.32273092 15.787214,8.38324992 C15.7927155,8.39015759 15.7982466,8.39739696 15.8036654,8.40469339 C15.8215099,8.42886931 15.8382813,8.45372505 15.8539326,8.47933981 C15.8613931,8.49138689 15.8685012,8.50360556 15.8753288,8.5159379 C15.8862061,8.53570605 15.8966234,8.5561086 15.9063462,8.57690085 C15.914321,8.5939015 15.9218036,8.61120435 15.9287745,8.62866398 C15.9366843,8.6484208 15.9438775,8.66820232 15.9504533,8.68826359 C15.9552713,8.70314866 15.9599023,8.71853672 15.9641549,8.73400703 C15.9701664,8.75556352 15.9753602,8.77725392 15.9798348,8.7992059 C15.9832978,8.81662474 15.9863719,8.83405099 15.9889822,8.85153313 C15.9962388,8.89963791 16,8.94937972 16,9 L15.9962979,8.9137692 C15.9978436,8.93173451 15.9989053,8.94973363 15.9994829,8.96774538 L16,9 L16,17 L15.9932723,17.1166211 C15.9355072,17.6139598 15.5128358,18 15,18 C14.4477153,18 14,17.5522847 14,17 L14,17 L14,11.414 L6.70710678,18.7071068 L6.61289944,18.7902954 C6.22060824,19.0953203 5.65337718,19.0675907 5.29289322,18.7071068 C4.90236893,18.3165825 4.90236893,17.6834175 5.29289322,17.2928932 L5.29289322,17.2928932 L12.585,9.999 L7,10 L6.88337887,9.99327227 C6.38604019,9.93550716 6,9.51283584 6,9 C6,8.44771525 6.44771525,8 7,8 L7,8 L15,8 Z"/>
</svg>

<svg xmlns="http://www.w3.org/2000/svg" viewBox="0 0 24 24">
  <path d="M19 2h.18A3 3 0 0 1 22 5v14.18A3 3 0 0 1 19 22H8.88A1 1 0 0 1 9 20h10.12a1 1 0 0 0 .88-1V4.88A1 1 0 0 0 19 4H4.88A1 1 0 0 0 4 5v11.12A1 1 0 0 1 2 16V4.82A3 3 0 0 1 5 2h14zm-4 6h.12a1 1 0 0 1 .06.02h.02a1 1 0 0 1 .5.27l-.09-.08.02.01A1 1 0 0 1 16 9v-.09a1 1 0 0 1 0 .06v8.15a1 1 0 0 1-2-.12v-5.59l-7.3 7.3-.09.08a1 1 0 0 1-1.32-1.5l7.3-7.3L7 10h-.12A1 1 0 0 1 7 8h8z"/>
</svg>
